X:1
T:James Gibb editions
T:Psalm 57 (Becker) - Schütz
%%score [ ( 1 2 ) ( 3 4 ) ]
L:1/8
Q:1/4=120
M:2/2
K:F
V:1 treble nm="Soprano Alto"
V:2 treble 
V:3 bass nm="Tenor Bass"
V:4 bass 
V:1
"^Cornelius Becker\n(1561-1604)""^Psalm 57, SWV 154""^Heinrich Schütz\n(1585-1672)" B8 | A4 G4 | %2
w: ~Sei|mir gnä-|
w: mein|Seel nach|
 F4 D4 | (E2 G2) ^F4 | G4 G4 | d4 e4 | f6 d2 | (c2 d2 B4) | A8 :|[M:2/2] D8 | F4 G4 | A4 B4 | %12
w: dig, o|Gott * mein|Herr, dein|Gnad wollst|mir er-|zei\- * *|gen,|im|Schat- ten,|Herr, der|
w: dir ver-|lan\- * get|sehr, zu|dir mein|Herz sich|nei\- * *|get,||||
 c4 d4 | B8 | d8 | c6 A2 | G2 F2 E4 | D8 | d8 | c4 B4 | _e4 d4 | d4 (c2 B2) | A4 c4 | d6 c2 | %24
w: Flü- gel|dein|will|ich mein|Zu- flucht ha-|ben,|bis|daß dies|schwe- re|Un- glück *|mein einst-|mals vor-|
w: ||||||||||||
 B2 A2 G4 | ^F4 F4 | G6 G2 | G2 G2 G4 | G8 |] %29
w: ü- ber tra-|be und|ich kein|Leid mehr ha-|be.|
w: |||||
V:2
 G8 | F4 _E4 | D4 B,4 | G,4 D4 | D4 D4 | G4 G4 | F6 F2 | (F4 D4) | D8 :|[M:2/2] A,8 | D4 E4 | %11
 F4 D4 | F4 F4 | _E8 | F8 | F6 F2 | E2 D2 ^C4 | x4 x4 | F8 | F4 D4 | G4 F4 | F4 E4 | F4 F4 | %23
 F6 F2 | D2 D2 (D2 C2) | D4 D4 | D6 G,2 | C2 D2 _E4 | D8 |] %29
V:3
 D8 | D4 B,4 | B,4 F,4 | C4 A,4 | =B,4 _B,4 | B,4 C4 | A,6 B,2 | (A,4 G,4) | ^F,8 :|[M:2/2] F,8 | %10
 A,4 C4 | C4 B,4 | A,4 B,4 | G,8 | B,8 | A,6 C2 | C2 A,2 A,4 | A,8 | B,8 | A,4 G,4 | %20
"^2. Ich rief zum allerhöchsten Gott, heb auf zu ihm mein Hände,\ner hilft mir frei aus aller Not, macht meins Jammers ein Ende,\ner sendet Hülf vons Himmels Thron, wenn mir Schmach widerfähret,\nwill mein Feind mich versenken schon, Gott alls zum Besten kehret,\nsein Treu er mir gewähret.\n\n5. Mein Herz ist fröhlich und bereit, den frommen Gott zu loben,\nbereit ist mein Herz allezeit, mein Seel in Gott erhoben.\nWach auf, mein Ehr und Psalter gut, mein Harf' lieblich erklinge!\nIch wach früh auf mit fröhl'chem Mut in der Gemein zu singen\nGotts Lob vor allen Dingen.\n\n6. Dein Gut und Treu, Herr, geht so weit, als weit der Himmel reichet,\ndein Wahrheit und Gerechtigkeit den Wolken sich vergleichet.\nErheb dich, Gott, und mach bekannt im Himmel hoch dein Ehre,\ndein Ruhm werd kund in allem Land, daß man dein Lob vermehre,\nall Welt dich preiset sehre.""^Psalm 56 (Becker) - Schütz" B,4 A,4 | %21
 B,4 G,4 | C4 A,4 | B,6 A,2 | G,2 ^F,2 G,4 | A,4 A,4 | =B,6 C2 | _E2 D2 C4 | =B,8 |] %29
V:4
 G,8 | D,4 _E,4 | B,,4 B,,4 | (C,2 _E,2) D,4 | G,,4 G,4 | G,4 C,4 | D,6 B,,2 | (F,2 D,2) G,4 | %8
 D,8 :|[M:2/2] D,8 | D,4 C,4 | F,4 G,4 | F,4 B,,4 | _E,8 | B,,8 | F,6 F,2 | C,2 D,2 A,,4 | D,8 | %18
 B,,8 | F,4 G,4 | _E,4 F,4 | G,4 G,4 | F,4 F,4 | B,6 F,2 | G,2 D,2 _E,4 | D,4 D,4 | G,6 _E,2 | %27
 C,2 =B,,2 C,4 | G,8 |] %29

